_site/assets/img/parceiros/mapfre.svg

<?xml version="1.0" encoding="UTF-8"?>
<svg width="535px" height="190px" viewBox="0 0 535 190" version="1.1" xmlns="http://www.w3.org/2000/svg" xmlns:xlink="http://www.w3.org/1999/xlink">
    <!-- Generator: Sketch 47.1 (45422) - http://www.bohemiancoding.com/sketch -->
    <title>mapfre</title>
    <desc>Created with Sketch.</desc>
    <defs></defs>
    <g id="Page-1" stroke="none" stroke-width="1" fill="none" fill-rule="evenodd">
        <g id="Artboard" transform="translate(-3316.000000, -63.000000)" fill-rule="nonzero" fill="#E40520">
            <g id="mapfre" transform="translate(3316.000000, 63.000000)">
                <polygon id="Shape" points="28.2051722 114.669604 46.8595666 152.33214 65.5301625 114.669604 93.771518 114.669604 93.771518 190 65.5301625 190 65.5301625 152.33214 46.8595666 190 28.2051722 152.33214 28.2051722 190 0 190 0 114.669604"></polygon>
                <path d="M174.80596,114.669604 L124.952311,114.669604 L102.981221,190 L131.211165,190 L134.815746,177.612524 L164.951169,177.612524 L168.544945,190 L196.752739,190 L174.80596,114.669604 Z M138.419787,165.274021 L149.883457,125.949334 L161.341185,165.274021 L138.419787,165.274021 Z" id="Shape"></path>
                <path d="M257.519324,114.669604 L205.125196,114.669604 L205.125196,190 L233.11282,190 L233.11282,158.611003 L257.519324,158.611003 C269.73651,158.611003 279.640063,148.76149 279.640063,136.629383 C279.640063,124.502603 269.735974,114.669604 257.519324,114.669604 Z M239.663024,145.821019 L233.601058,145.821019 L233.601058,123.290724 L239.663024,123.290724 L239.663024,123.291257 C245.980096,123.291257 252.108519,126.640304 252.108519,133.467844 C252.107983,140.323084 246.70093,145.821019 239.663024,145.821019 Z" id="Shape"></path>
                <polygon id="Shape" points="289.687011 114.669604 364.201878 114.669604 364.201878 127.040665 317.704579 127.040665 317.704579 146.186533 364.201878 146.186533 364.201878 158.530979 317.704579 158.530979 317.704579 190 289.687011 190"></polygon>
                <polygon id="Shape" points="488.52613 177.612437 535 177.612437 535 190 460.485133 190 460.485133 114.669604 535 114.669604 535 127.040665 488.52613 127.040665 488.52613 146.187066 535 146.187066 535 158.530979 488.52613 158.530979"></polygon>
                <path d="M429.80244,152.329743 C440.268885,152.329743 448.763693,143.894259 448.763693,133.516181 C448.763693,123.105087 440.258166,114.669604 429.80244,114.669604 L405.348046,114.669604 L374.248826,114.669604 L374.248826,152.329743 L374.248826,190 L402.737062,190 L402.737062,158.800266 L408.793452,158.800266 C415.64139,158.800266 421.242786,164.33943 421.242786,171.181113 C421.242786,171.374946 421.242786,171.568247 421.215454,171.778589 L421.215454,190 L429.801905,190 L448.763157,190 L448.763157,171.181113 L448.763157,170.56713 C448.406237,160.425485 440.068988,152.329743 429.80244,152.329743 Z M408.793452,145.837919 L402.737062,145.837919 L402.737062,123.325546 L408.793452,123.325546 C414.947914,123.325546 421.242786,126.685681 421.242786,133.489023 C421.242786,140.341356 415.662826,145.837919 408.793452,145.837919 Z" id="Shape"></path>
                <path d="M449.600939,170.748899 L449.600939,171.585903 L449.600939,170.748899 Z" id="Shape"></path>
                <path d="M26.7918623,82.8634361 L26.7918623,80.1257089 L36.363192,80.1257089 L36.363192,6.08628408 L26.7918623,6.08628408 L26.7918623,3.34801762 L84.454293,3.34801762 L85.399061,24.4177863 L83.2723962,24.4177863 C79.6094798,10.0146557 77.6005764,6.08628408 62.8306138,6.08628408 L47.8245931,6.08628408 L47.8245931,40.724438 C58.3406908,40.6052658 63.066672,40.2488274 64.2485688,28.3461579 L66.966182,28.3461579 L66.966182,57.6280297 L64.3668655,57.6280297 C63.539859,45.4859372 58.8133425,43.7010491 47.8245931,43.7010491 L47.8245931,80.1257089 L57.9863359,80.1257089 L57.9863359,82.8634361 L26.7918623,82.8634361 L26.7918623,82.8634361 Z" id="Shape"></path>
                <path d="M138.982786,82.0540478 L136.476979,82.0540478 C132.180614,82.0540478 127.764771,82.4071886 123.468947,82.8769778 L123.468947,73.3538928 L123.22999,73.3538928 C120.12679,79.8201522 113.682514,83.7004405 105.925595,83.7004405 C94.2302064,83.7004405 91.8433373,77.9383323 91.8433373,72.2950029 L91.8433373,38.1974689 L85.399061,38.1974689 L85.399061,35.4932515 L87.7859301,35.4932515 C92.2017731,35.4932515 96.8554921,35.3760705 101.151856,34.3171806 L101.151856,71.236113 C101.151856,78.4091867 104.851368,79.9378659 108.431942,79.9378659 C116.904652,79.9378659 122.871554,73.000752 122.871554,64.534959 L122.871554,38.1974689 L116.069383,38.1974689 L116.069383,35.4932515 L118.814147,35.4932515 C123.22999,35.4932515 127.88425,35.3760705 132.180614,34.3171806 L132.180614,79.3498304 L138.982786,79.3498304 L138.982786,82.0540478 L138.982786,82.0540478 Z" id="Shape"></path>
                <path d="M153.096962,38.1952241 L146.518539,38.1952241 L146.518539,35.4925712 L149.029946,35.4925712 C151.302403,35.4925712 153.574861,35.4925712 155.727573,35.2578124 C158.00003,35.1401669 160.273029,34.7877627 162.425741,34.3171806 L162.425741,46.7737652 L162.665233,46.7737652 C166.013775,39.3706147 170.678436,34.3171806 179.409571,34.3171806 C183.714995,34.3171806 193.643044,35.2578124 193.643044,46.0689567 L193.643044,79.3243111 L200.101721,79.3243111 L200.101721,82.0264317 L178.093994,82.0264317 L178.093994,79.3243111 L184.313723,79.3243111 L184.313723,47.5962191 C184.313723,39.0176781 181.562824,37.7257067 176.778418,37.7257067 C168.644928,37.7257067 162.425741,48.6528995 162.425741,57.4672639 L162.425741,79.3243111 L168.884419,79.3243111 L168.884419,82.0264317 L146.517997,82.0264317 L146.517997,79.3243111 L153.09642,79.3243111 L153.09642,38.1952241 L153.096962,38.1952241 Z" id="Shape"></path>
                <path d="M258.70892,80.2569521 L258.70892,82.9915767 C253.530155,82.9915767 248.350323,83.110614 243.171557,83.9427974 L243.171557,75.9764592 L242.936934,75.9764592 C239.640483,81.6843217 234.226029,84.5374449 227.516882,84.5374449 C215.627904,84.5374449 206.799687,73.0042987 206.799687,59.4496739 C206.799687,46.132585 214.686213,34.718476 228.693729,34.718476 C232.460492,34.718476 239.28695,36.5024187 242.818556,43.7556107 L243.053712,43.7556107 L243.053712,3.80488255 L235.167186,3.80488255 L235.167186,1.0707965 L239.051793,1.0707965 C243.407246,1.0707965 247.996789,0.83272203 252.23493,0 L252.23493,80.2574907 L258.70892,80.2574907 L258.70892,80.2569521 Z M228.810507,37.095989 C217.863753,37.095989 217.510752,49.2237828 217.510752,57.6651926 C217.510752,75.9759206 219.747134,82.0398175 229.399197,82.0398175 C232.459959,82.0398175 235.990499,80.1379148 237.52088,78.8290439 C241.993644,74.7871641 243.524024,72.4091125 243.524024,60.0432442 C243.524024,57.4281954 243.406713,51.9584074 242.700178,49.5803558 C242.229333,47.7969518 239.63995,37.095989 228.810507,37.095989 L228.810507,37.095989 Z" id="Shape"></path>
                <path d="M313.967136,74.0356431 C313.610593,79.5744017 309.336915,83.7004405 303.875836,83.7004405 C299.483848,83.7004405 296.990197,80.8717975 296.159339,76.5113732 C292.122818,81.4612316 286.187424,83.7004405 280.133181,83.7004405 C272.654917,83.7004405 266.244131,80.8717975 266.244131,72.1498811 C266.600137,61.1898236 277.877763,55.060563 296.040491,55.060563 L296.040491,43.8639844 C296.040491,38.3246919 291.648503,36.6743832 287.49206,36.6743832 C284.881712,36.6743832 276.453742,37.4998045 276.453742,40.9178817 C276.453742,41.8602288 280.014333,42.4501968 280.014333,46.3391806 C280.014333,49.2858172 278.114921,51.289039 275.146417,51.289039 C271.941293,51.289039 270.160728,48.9318364 270.160728,45.6317528 C270.160728,41.3887883 275.027569,34.3171806 289.153239,34.3171806 C305.297706,34.3171806 305.297706,41.1528011 305.297706,45.8677401 L305.297706,73.9176495 C305.297706,77.4531864 305.297706,79.3394823 307.790819,79.3394823 C310.165085,79.3394823 311.351949,76.038331 311.946725,74.0351092 L313.967136,74.0351092 L313.967136,74.0356431 Z M296.041566,57.5357592 C288.324531,57.652685 275.14803,58.9495468 275.14803,69.7921446 C275.14803,75.5674244 278.828545,79.1029612 284.288549,79.1029612 C288.086836,79.1029612 290.579949,78.1595463 293.429068,75.6859519 C294.379312,74.742003 296.040491,73.4467429 296.040491,68.4952828 L296.041566,57.5357592 L296.041566,57.5357592 Z" id="Shape"></path>
                <path d="M362.527387,67.553295 C359.762114,75.9213211 354.951214,83.2289949 342.444838,83.7004405 C323.805395,83.7004405 318.153365,68.4956523 318.153365,60.36415 C318.153365,39.3856213 335.349701,34.3171806 342.204047,34.3171806 C350.02101,34.3171806 361.083735,37.8532896 361.083735,46.928751 C361.083735,50.1103415 359.038654,53.174471 355.67195,53.174471 C352.425097,53.174471 350.01992,51.0526988 350.01992,47.6356525 C350.01992,43.0391913 353.867659,42.4502847 353.867659,41.152341 C353.867659,37.9707506 346.292032,36.6738747 343.644975,36.6738747 C332.101214,36.6738747 329.094061,44.9239059 329.094061,60.363616 C329.094061,67.4358341 330.898897,72.8561237 331.620178,74.5064503 C333.42447,78.3954761 337.151269,80.871233 343.405274,81.2246837 C350.380561,81.5776005 357.113967,76.0382481 360.001269,67.5527611 L362.527387,67.5527611 L362.527387,67.553295 Z" id="Shape"></path>
                <path d="M370.899844,82.8634361 L370.899844,80.1222124 L378.874241,80.1222124 L378.874241,38.3979354 L370.899844,38.3979354 L370.899844,35.6567117 L374.827733,35.6567117 C379.231174,35.6567117 383.872392,35.5373637 388.158294,34.4643118 L388.158294,80.1222124 L395.179969,80.1222124 L395.179969,82.8634361 L370.899844,82.8634361 L370.899844,82.8634361 Z M383.396301,4.18502203 C386.252849,4.18502203 389.466332,6.80797785 389.466332,9.90778564 C389.466332,13.6032534 386.848638,16.2251291 383.396301,16.2251291 C379.943964,16.2251291 377.682664,13.3640173 377.682664,9.90778564 C377.683742,6.80797785 380.421673,4.18502203 383.396301,4.18502203 L383.396301,4.18502203 Z" id="Shape"></path>
                <path d="M449.600939,59.5490411 C449.600939,73.947183 439.103188,84.5374449 426.576682,84.5374449 C414.050177,84.5374449 403.552426,73.947183 403.552426,59.5490411 C403.552426,45.1508991 414.050177,34.6786901 426.576682,34.6786901 C439.103188,34.6786901 449.600939,45.1508991 449.600939,59.5490411 L449.600939,59.5490411 Z M414.408478,59.5490411 C414.408478,69.544187 414.527912,82.1575199 426.577223,82.1575199 C438.625452,82.1575199 438.745967,69.544187 438.745967,59.5490411 C438.745967,49.6730261 438.625452,37.0586151 426.577223,37.0586151 C414.527912,37.058076 414.408478,49.671948 414.408478,59.5490411 L414.408478,59.5490411 Z M435.523955,13.6172972 C436.717213,12.4276042 437.90993,10.8810573 439.699276,10.8810573 C442.085252,10.8810573 443.875679,12.5467352 443.875679,14.9266602 C443.875679,17.5443082 441.251376,19.0919333 437.790496,21.2330572 L421.925246,30.8708101 L417.748844,30.8708101 L435.523955,13.6172972 Z" id="Shape"></path>
                <path d="M461.202969,38.1952241 L454.624413,38.1952241 L454.624413,35.4925712 L457.135871,35.4925712 C459.408374,35.4925712 461.68142,35.4925712 463.834175,35.2578124 C466.106679,35.1401669 468.379724,34.7877627 470.532479,34.3171806 L470.532479,46.7737652 L470.770892,46.7737652 C474.120044,39.3706147 478.784257,34.3171806 487.51611,34.3171806 C491.820538,34.3171806 501.74933,35.2578124 501.74933,46.0689567 L501.74933,79.3243111 L508.208138,79.3243111 L508.208138,82.0264317 L486.200508,82.0264317 L486.200508,79.3243111 L492.420361,79.3243111 L492.420361,47.5962191 C492.420361,39.0176781 489.669408,37.7257067 484.884905,37.7257067 C476.751791,37.7257067 470.533021,48.6528995 470.533021,57.4672639 L470.533021,79.3243111 L476.991829,79.3243111 L476.991829,82.0264317 L454.624413,82.0264317 L454.624413,79.3243111 L461.202969,79.3243111 L461.202969,38.1952241 Z" id="Shape"></path>
            </g>
        </g>
    </g>
</svg>

<svg width="535" height="190" viewBox="0 0 535 190" xmlns="http://www.w3.org/2000/svg"><title>mapfre</title><path d="M28.205 114.67l18.655 37.662 18.67-37.662h28.242V190H65.53v-37.668L46.86 190l-18.655-37.668V190H0v-75.33zm146.601 0h-49.854L102.982 190h28.23l3.604-12.387h30.135L168.545 190h28.208l-21.947-75.33zm-36.386 50.604l11.463-39.325 11.458 39.325H138.42zm119.1-50.604h-52.395V190h27.988v-31.389h24.406c12.218 0 22.121-9.85 22.121-21.982 0-12.126-9.904-21.96-22.12-21.96zm-17.857 31.151h-6.062v-22.53h6.062c6.317 0 12.446 3.35 12.446 10.177-.001 6.855-5.408 12.353-12.446 12.353zm50.024-31.151h74.515v12.37h-46.497v19.147h46.497v12.344h-46.497V190h-28.018zm198.839 62.942H535V190h-74.515v-75.33H535v12.37h-46.474v19.147H535v12.344h-46.474zm-58.724-25.282c10.467 0 18.962-8.436 18.962-18.814 0-10.41-8.506-18.846-18.962-18.846h-55.554V190h28.49v-31.2h6.055c6.848 0 12.45 5.54 12.45 12.381 0 .194 0 .387-.028.598V190h27.548v-19.433c-.357-10.142-8.694-18.237-18.96-18.237zm-21.009-6.492h-6.056v-22.512h6.056c6.155 0 12.45 3.36 12.45 10.163 0 6.852-5.58 12.349-12.45 12.349zm40.807 24.911v.837-.837zM26.792 82.863v-2.737h9.571V6.086h-9.571V3.348h57.662l.945 21.07h-2.127C79.61 10.015 77.601 6.086 62.831 6.086H47.825v34.638c10.516-.119 15.242-.475 16.424-12.378h2.717v29.282h-2.6c-.826-12.142-5.553-13.927-16.541-13.927v36.425h10.161v2.737H26.792zm112.191-.809h-2.506c-4.296 0-8.712.353-13.008.823v-9.523h-.239c-3.103 6.466-9.547 10.346-17.304 10.346-11.696 0-14.083-5.762-14.083-11.405V38.197H85.4v-2.704h2.387c4.416 0 9.07-.117 13.366-1.176v36.92c0 7.172 3.7 8.7 7.28 8.7 8.473 0 14.44-6.936 14.44-15.402V38.197h-6.803v-2.704h2.745c4.416 0 9.07-.117 13.367-1.176V79.35h6.802v2.704zm14.114-43.859h-6.578v-2.702h2.51c2.273 0 4.546 0 6.699-.235 2.272-.118 4.545-.47 6.698-.94v12.456h.24c3.348-7.403 8.012-12.457 16.744-12.457 4.305 0 14.233.94 14.233 11.752v33.255h6.459v2.702h-22.008v-2.702h6.22V47.596c0-8.578-2.751-9.87-7.536-9.87-8.133 0-14.352 10.927-14.352 19.741v21.857h6.458v2.702h-22.366v-2.702h6.578V38.195h.001zm105.612 42.062v2.735c-5.179 0-10.359.119-15.537.95v-7.966h-.235c-3.297 5.708-8.711 8.561-15.42 8.561-11.89 0-20.717-11.533-20.717-25.087 0-13.317 7.886-24.732 21.894-24.732 3.766 0 10.593 1.784 14.125 9.038h.235V3.805h-7.887V1.07h3.885c4.355 0 8.945-.238 13.183-1.071v80.257h6.474zM228.81 37.096c-10.947 0-11.3 12.128-11.3 20.57 0 18.31 2.236 24.374 11.888 24.374 3.061 0 6.591-1.902 8.122-3.211 4.473-4.042 6.003-6.42 6.003-18.786 0-2.615-.117-8.085-.824-10.463-.47-1.783-3.06-12.484-13.89-12.484zm85.157 36.94c-.356 5.538-4.63 9.664-10.091 9.664-4.392 0-6.886-2.828-7.717-7.189-4.036 4.95-9.972 7.19-16.026 7.19-7.478 0-13.889-2.83-13.889-11.551.356-10.96 11.634-17.09 29.796-17.09V43.865c0-5.54-4.391-7.19-8.548-7.19-2.61 0-11.038.826-11.038 4.244 0 .942 3.56 1.532 3.56 5.421 0 2.947-1.9 4.95-4.868 4.95-3.205 0-4.985-2.357-4.985-5.657 0-4.243 4.867-11.315 18.992-11.315 16.145 0 16.145 6.836 16.145 11.55v28.05c0 3.536 0 5.422 2.493 5.422 2.374 0 3.56-3.3 4.156-5.304h2.02zm-17.925-16.5c-7.717.117-20.894 1.414-20.894 12.256 0 5.775 3.68 9.311 9.14 9.311 3.799 0 6.292-.943 9.141-3.417.95-.944 2.611-2.24 2.611-7.19l.002-10.96zm66.485 10.017c-2.765 8.368-7.576 15.676-20.082 16.147-18.64 0-24.292-15.204-24.292-23.336 0-20.978 17.197-26.047 24.051-26.047 7.817 0 18.88 3.536 18.88 12.612 0 3.181-2.045 6.245-5.412 6.245-3.247 0-5.652-2.121-5.652-5.538 0-4.597 3.848-5.186 3.848-6.484 0-3.181-7.576-4.478-10.223-4.478-11.544 0-14.55 8.25-14.55 23.69 0 7.072 1.804 12.492 2.525 14.142 1.804 3.89 5.531 6.365 11.785 6.719 6.976.353 13.709-5.187 16.596-13.672h2.526zm8.373 15.31v-2.74h7.974V38.397H370.9v-2.741h3.928c4.403 0 9.044-.12 13.33-1.193v45.658h7.022v2.741H370.9zm12.496-78.678c2.857 0 6.07 2.623 6.07 5.723 0 3.695-2.617 6.317-6.07 6.317-3.452 0-5.713-2.861-5.713-6.317 0-3.1 2.739-5.723 5.713-5.723zM449.6 59.549c0 14.398-10.497 24.988-23.023 24.988-12.527 0-23.025-10.59-23.025-24.988s10.498-24.87 23.025-24.87c12.526 0 23.024 10.472 23.024 24.87zm-35.192 0c0 9.995.12 22.609 12.17 22.609 12.047 0 12.168-12.614 12.168-22.609 0-9.876-.12-22.49-12.169-22.49-12.05 0-12.169 12.613-12.169 22.49zm21.116-45.932c1.193-1.19 2.386-2.736 4.175-2.736 2.386 0 4.177 1.666 4.177 4.046 0 2.617-2.625 4.165-6.086 6.306l-15.865 9.638h-4.176l17.775-17.254zm25.679 24.578h-6.579v-2.702h2.512c2.272 0 4.545 0 6.698-.235 2.273-.118 4.546-.47 6.698-.94v12.456h.239c3.349-7.403 8.013-12.457 16.745-12.457 4.305 0 14.233.94 14.233 11.752v33.255h6.46v2.702H486.2v-2.702h6.22V47.596c0-8.578-2.752-9.87-7.536-9.87-8.133 0-14.352 10.927-14.352 19.741v21.857h6.459v2.702h-22.368v-2.702h6.579V38.195z" fill="#E40520"/></svg>
